svg/fluentui-system-icons/ic_fluent_animal_rabbit_28_regular.svg

<svg width="28" height="28" viewBox="0 0 28 28" fill="none" xmlns="http://www.w3.org/2000/svg">
<path d="M16.9956 10.7715L15.0794 8.88046C14.1913 7.9932 14.1913 6.55436 15.0794 5.6671C15.9669 4.78041 17.4055 4.78024 18.2933 5.66657L24.6223 11.9588C26.4592 13.7939 26.4592 16.7694 24.6223 18.6045C23.6084 19.6175 22.2469 20.0705 20.9234 19.9657C20.4664 21.1612 19.3079 22.0085 17.952 22.0085L9.19092 22.0085C7.4374 22.0085 6 20.5888 6 18.8284V16.9653C5.8367 16.9886 5.66976 17.0007 5.5 17.0007C3.567 17.0007 2 15.4337 2 13.5007C2 11.5677 3.567 10.0007 5.5 10.0007C6.80747 10.0007 7.94749 10.7176 8.5484 11.7798C9.35616 11.2867 10.3053 11.0025 11.3193 11.0025L15.8236 11.0025C16.1304 11.0025 16.4316 11.0286 16.725 11.0787C16.8075 10.975 16.8982 10.8713 16.9956 10.7715ZM17.2336 6.72827C16.9316 6.42651 16.4416 6.42651 16.1396 6.72827C15.8384 7.02918 15.8379 7.51647 16.1382 7.81793L16.1396 7.81928L19.3622 10.9995L18.3581 11.5758C18.1121 11.735 17.8474 12.0445 17.7098 12.2889L17.421 12.8017L16.8542 12.6431C16.5273 12.5517 16.1818 12.5025 15.8236 12.5025L11.3193 12.5025C9.21215 12.5025 7.5 14.2092 7.5 16.309V18.8284C7.5 19.7522 8.25765 20.5085 9.19092 20.5085L13.9995 20.5085V20.1823C13.9995 19.2551 13.2469 18.5022 12.317 18.5022H10.7459C10.3317 18.5022 9.99591 18.1664 9.99591 17.7522C9.99591 17.338 10.3317 17.0022 10.7459 17.0022H12.317C14.0739 17.0022 15.4995 18.4253 15.4995 20.1823V20.5085L17.952 20.5085C18.8132 20.5085 19.5223 19.8623 19.62 19.032L19.7188 18.1922L20.5409 18.3907C21.5924 18.6446 22.7439 18.3609 23.5622 17.5434C24.8123 16.2945 24.8126 14.2701 23.5631 13.0208L23.5622 13.0199L17.2336 6.72827ZM7.36077 12.7661C7.06795 12.025 6.3452 11.5007 5.5 11.5007C4.39543 11.5007 3.5 12.3961 3.5 13.5007C3.5 14.6053 4.39543 15.5007 5.5 15.5007C5.69985 15.5007 5.89286 15.4714 6.07495 15.4168C6.24647 14.4075 6.70399 13.4956 7.36077 12.7661Z" fill="#212121"/>
</svg>

<svg xmlns="http://www.w3.org/2000/svg" width="28" height="28"><path d="m16.996 10.771-1.917-1.89a2.27 2.27 0 0 1 0-3.214 2.274 2.274 0 0 1 3.214 0l6.33 6.292a4.696 4.696 0 0 1 0 6.646 4.695 4.695 0 0 1-3.7 1.36 3.18 3.18 0 0 1-2.971 2.044H9.191A3.189 3.189 0 0 1 6 18.829v-1.864a3.5 3.5 0 1 1 2.548-5.185 5.302 5.302 0 0 1 2.771-.778h4.505c.306 0 .608.027.901.077a4.02 4.02 0 0 1 .27-.308Zm.238-4.043a.774.774 0 0 0-1.094 0 .77.77 0 0 0-.002 1.09l.002.001L19.362 11l-1.004.577c-.246.159-.51.468-.648.713l-.289.513-.567-.159a3.822 3.822 0 0 0-1.03-.14h-4.505A3.816 3.816 0 0 0 7.5 16.308v2.52c0 .923.758 1.68 1.69 1.68H14v-.327c0-.927-.753-1.68-1.683-1.68h-1.571a.75.75 0 0 1 0-1.5h1.571a3.181 3.181 0 0 1 3.182 3.18v.327h2.453a1.68 1.68 0 0 0 1.668-1.477l.099-.84.822.199a3.203 3.203 0 0 0 3.021-.848 3.196 3.196 0 0 0 .001-4.522v-.001l-6.33-6.292ZM7.36 12.766a2 2 0 1 0-1.286 2.65 5.282 5.282 0 0 1 1.286-2.65Z"/></svg>
